X:1
T:Title
%%score { 1 | 2 }
L:1/8
M:4/4
K:F
V:1 treble nm="Grand Piano"
V:2 bass 
V:1
 z4 z2 z[Q:1/4=100] A | c2 A2 F3 G | A2 [GB]2 [Ac]3 c | d2 f2 c3 A |[M:7/8] d2 c2 G3 | %5
[M:1/8] [EB] |[M:4/4] A2 G2 F3 G | A2 [GB]2 [Ac]3 [Fc] | [Fd]2 [Ff]2 [Fc]2 [FA]2 | %9
[M:7/8] [EG]3 [CF] [CF]3 |[M:1/8] [Ac] |[M:4/4] [Bd]2 [Ac]2 F3 G | A2 [GB]2 [Ac]3 [Ac] | %13
 [Bd]2 [Ac]2 [Af]3 A |[M:7/8] d2 c2 G3 |[M:1/8] [EB] |[M:4/4] A2 G2 F3 G | A2 [GB]2 [Ac]3 [Fc] | %18
 [Fd]2 [Ff]2 [Fc]2 [FA]2 |[M:15/8] [EG]3 F F2- F z2 z6 |] %20
V:2
 z4 z2 z [F,CF] | [F,A,F]2 [F,CF]2 [A,C]3 [G,CE] | [F,CF]2 [F,C]2 [F,C]3[K:treble] [F,A,F] | %3
 [F,B,F]2 [F,DF]2 [F,A,F]3 [F,CF] |[M:7/8] [F,B,F]2 [A,CF]2 [CE]3 |[M:1/8][K:bass] [C,C] | %6
[M:4/4] [F,CF]2 [B,CE]2 [A,C]3 [G,CE] | [F,CF]2 [F,C]2 [F,C]3 [F,A,] | %8
 [B,,B,]2 [B,,D]2 [C,A,]2 [C,C]2 |[M:7/8] [C,B,]3 [F,A,] [F,A,]3 |[M:1/8] [F,F] | %11
[M:4/4] [F,F]2 [F,F]2 [A,C]3 [G,CE] | [F,CF]2 [F,C]2 [F,C]3 [F,F] | %13
 [F,F]2 [F,F]2 [F,C]3[K:treble] [F,CF] |[M:7/8] [F,B,F]2 [A,CF]2 [CE]3 |[M:1/8][K:bass] [C,C] | %16
[M:4/4] [F,CF]2 [B,CE]2 [A,C]3 [G,CE] | [F,CF]2 [F,C]2 [F,C]3 [F,A,] | %18
 [B,,B,]2 [B,,D]2 [C,A,]2 [C,C]2 |[M:15/8] [C,B,]3 [F,A,C] [F,A,C]2- [F,A,C] z2 z6 |] %20

